dist/static/img/service/context-3.svg

<svg width="48" height="48" viewBox="0 0 48 48" fill="none" xmlns="http://www.w3.org/2000/svg">
<g clip-path="url(#clip0_1094_4489)">
<path d="M43.2195 38.0768C44.2987 37.254 45 35.9588 45 34.5C45 32.2747 43.3747 30.4268 41.25 30.0675V29.25C41.25 27.1823 39.5677 25.5 37.5 25.5H24.75V22.767C25.155 23.0753 25.6418 23.25 26.1593 23.25C27.4223 23.25 28.4475 22.2435 28.4917 20.9918C29.7157 20.9482 30.6982 19.9657 30.7417 18.7418C31.9657 18.6982 32.9482 17.7157 32.9917 16.4918C34.2435 16.4475 35.25 15.4215 35.25 14.1593C35.25 13.5337 35.0062 12.9458 34.5645 12.504L34.4085 12.348C35.439 11.0835 36 9.5175 36 7.86375C36 3.94125 32.8088 0.75 28.8862 0.75C27.051 0.75 25.3267 1.446 24 2.703C22.6733 1.446 20.949 0.75 19.1138 0.75C15.1913 0.75 12 3.94125 12 7.86375C12 9.7065 12.7013 11.4383 13.9688 12.7673C13.6695 13.1693 13.5 13.6493 13.5 14.1593C13.5 15.4222 14.5065 16.4475 15.7582 16.4918C15.8018 17.7157 16.7843 18.6982 18.0082 18.7418C18.0518 19.9657 19.0343 20.9482 20.2582 20.9918C20.3025 22.2435 21.3285 23.25 22.5907 23.25C22.8188 23.25 23.0378 23.2073 23.25 23.145V25.5H10.5C8.43225 25.5 6.75 27.1823 6.75 29.25V30.0675C4.62525 30.4268 3 32.2747 3 34.5C3 35.9588 3.70125 37.254 4.7805 38.0768C2.4105 39.1253 0.75 41.496 0.75 44.25V47.25H14.25V44.25C14.25 41.496 12.5895 39.1253 10.2195 38.0768C11.2987 37.254 12 35.9588 12 34.5C12 32.2747 10.3748 30.4268 8.25 30.0675V29.25C8.25 28.0095 9.2595 27 10.5 27H23.25V30.0675C21.1252 30.426 19.5 32.274 19.5 34.5C19.5 35.9588 20.2013 37.254 21.2805 38.0768C18.9105 39.1253 17.25 41.496 17.25 44.25V47.25H30.75V44.25C30.75 41.496 29.0895 39.1253 26.7195 38.0768C27.7987 37.254 28.5 35.9588 28.5 34.5C28.5 32.2747 26.8748 30.4268 24.75 30.0675V27H37.5C38.7405 27 39.75 28.0095 39.75 29.25V30.0675C37.6253 30.426 36 32.274 36 34.5C36 35.9588 36.7013 37.254 37.7805 38.0768C35.4105 39.1253 33.75 41.496 33.75 44.25V47.25H47.25V44.25C47.25 41.496 45.5895 39.1253 43.2195 38.0768ZM28.8862 2.25C31.9815 2.25 34.5 4.7685 34.5 7.86375C34.5 9.1155 34.0882 10.3012 33.3375 11.2762L29.889 7.82775C30.1125 7.65975 30.3293 7.48125 30.531 7.28025L29.4705 6.21975C28.644 7.0455 27.5468 7.5 26.3783 7.5H25.1895L23.9093 8.78025C23.7675 8.922 23.5785 9 23.3783 9H20.5605C20.3895 9 20.25 8.8605 20.25 8.6895C20.25 8.60775 20.283 8.5275 20.3407 8.46975L24.9165 3.894C25.977 2.83425 27.3862 2.25 28.8862 2.25ZM19.1138 2.25C20.5448 2.25 21.8902 2.787 22.932 3.75675L19.2795 7.40925C18.9382 7.7505 18.75 8.20575 18.75 8.6895C18.75 9.68775 19.5623 10.5 20.5605 10.5H23.3783C23.979 10.5 24.5445 10.266 24.9697 9.84075L25.8105 9H26.3783C27.1275 9 27.8535 8.85675 28.53 8.5905L33.504 13.5645C33.6623 13.7235 33.75 13.9342 33.75 14.1593C33.75 14.6227 33.3727 15 32.9093 15C32.6843 15 32.4735 14.9123 32.3145 14.754L30.5303 12.9697L29.4697 14.0303L31.254 15.8145C31.4123 15.9735 31.5 16.1842 31.5 16.4093C31.5 16.8727 31.1228 17.25 30.6593 17.25C30.4343 17.25 30.2235 17.1623 30.0645 17.004L28.2803 15.2197L27.2197 16.2803L29.004 18.0645C29.1623 18.2235 29.25 18.4342 29.25 18.6593C29.25 19.1227 28.8728 19.5 28.4093 19.5C28.1843 19.5 27.9735 19.4123 27.8145 19.254L26.0303 17.4697L24.9697 18.5303L26.754 20.3145C26.9123 20.4735 27 20.6842 27 20.9093C27 21.3727 26.6228 21.75 26.1593 21.75C25.9343 21.75 25.7235 21.6623 25.5645 21.504L25.314 21.2535C25.4347 20.9685 25.5 20.6602 25.5 20.3407C25.5 19.0778 24.4935 18.0525 23.2418 18.0082C23.1982 16.7843 22.2157 15.8018 20.9918 15.7582C20.9482 14.5343 19.9657 13.5518 18.7418 13.5082C18.6975 12.2565 17.6715 11.25 16.4093 11.25C15.9045 11.25 15.429 11.415 15.0308 11.7083C14.0452 10.6628 13.5 9.30675 13.5 7.86375C13.5 4.7685 16.0185 2.25 19.1138 2.25ZM15 14.1593C15 13.9342 15.0877 13.7235 15.246 13.5645L15.8145 12.996C15.9735 12.8377 16.1842 12.75 16.4093 12.75C16.8727 12.75 17.25 13.1273 17.25 13.5907C17.25 13.8158 17.1623 14.0265 17.004 14.1855L16.4355 14.754C16.2765 14.9123 16.0658 15 15.8407 15C15.3773 15 15 14.6227 15 14.1593ZM17.25 16.4093C17.25 16.1842 17.3377 15.9735 17.496 15.8145L18.0645 15.246C18.2235 15.0877 18.4342 15 18.6593 15C19.1227 15 19.5 15.3773 19.5 15.8407C19.5 16.0658 19.4123 16.2765 19.254 16.4355L18.6855 17.004C18.5265 17.1623 18.3158 17.25 18.0907 17.25C17.6273 17.25 17.25 16.8727 17.25 16.4093ZM19.5 18.6593C19.5 18.4342 19.5877 18.2235 19.746 18.0645L20.3145 17.496C20.4735 17.3377 20.6842 17.25 20.9093 17.25C21.3727 17.25 21.75 17.6273 21.75 18.0907C21.75 18.3158 21.6623 18.5265 21.504 18.6855L20.9355 19.254C20.7765 19.4123 20.5658 19.5 20.3407 19.5C19.8773 19.5 19.5 19.1227 19.5 18.6593ZM22.5907 21.75C22.1273 21.75 21.75 21.3727 21.75 20.9093C21.75 20.6842 21.8377 20.4735 21.996 20.3145L22.5645 19.746C22.7235 19.5877 22.9342 19.5 23.1593 19.5C23.6227 19.5 24 19.8773 24 20.3407C24 20.5658 23.9123 20.7765 23.754 20.9355L23.1855 21.504C23.0265 21.6623 22.8158 21.75 22.5907 21.75ZM12.75 44.25V45.75H11.25V42.75H9.75V45.75H5.25V42.75H3.75V45.75H2.25V44.25C2.25 41.355 4.605 39 7.5 39C10.395 39 12.75 41.355 12.75 44.25ZM10.5 34.5C10.5 36.1545 9.1545 37.5 7.5 37.5C5.8455 37.5 4.5 36.1545 4.5 34.5C4.5 32.8455 5.8455 31.5 7.5 31.5C9.1545 31.5 10.5 32.8455 10.5 34.5ZM29.25 44.25V45.75H27.75V42.75H26.25V45.75H21.75V42.75H20.25V45.75H18.75V44.25C18.75 41.355 21.105 39 24 39C26.895 39 29.25 41.355 29.25 44.25ZM27 34.5C27 36.1545 25.6545 37.5 24 37.5C22.3455 37.5 21 36.1545 21 34.5C21 32.8455 22.3455 31.5 24 31.5C25.6545 31.5 27 32.8455 27 34.5ZM37.5 34.5C37.5 32.8455 38.8455 31.5 40.5 31.5C42.1545 31.5 43.5 32.8455 43.5 34.5C43.5 36.1545 42.1545 37.5 40.5 37.5C38.8455 37.5 37.5 36.1545 37.5 34.5ZM45.75 45.75H44.25V42.75H42.75V45.75H38.25V42.75H36.75V45.75H35.25V44.25C35.25 41.355 37.605 39 40.5 39C43.395 39 45.75 41.355 45.75 44.25V45.75Z" fill="#1F5AFF"/>
<path d="M28.5 28.5H30V30H28.5V28.5Z" fill="#1F5AFF"/>
<path d="M31.5 28.5H33V30H31.5V28.5Z" fill="#1F5AFF"/>
<path d="M34.5 28.5H36V30H34.5V28.5Z" fill="#1F5AFF"/>
<path d="M12 28.5H13.5V30H12V28.5Z" fill="#1F5AFF"/>
<path d="M15 28.5H16.5V30H15V28.5Z" fill="#1F5AFF"/>
<path d="M18 28.5H19.5V30H18V28.5Z" fill="#1F5AFF"/>
</g>
<defs>
<clipPath id="clip0_1094_4489">
<rect width="48" height="48" fill="white"/>
</clipPath>
</defs>
</svg>

<svg width="48" height="48" viewBox="0 0 48 48" fill="none" xmlns="http://www.w3.org/2000/svg"><g clip-path="url(#clip0_1094_4489)" fill="#1F5AFF"><path d="M43.22 38.077A4.492 4.492 0 0045 34.5a4.504 4.504 0 00-3.75-4.433v-.817a3.754 3.754 0 00-3.75-3.75H24.75v-2.733c.405.308.892.483 1.41.483a2.338 2.338 0 002.332-2.258 2.335 2.335 0 002.25-2.25 2.335 2.335 0 002.25-2.25 2.34 2.34 0 002.258-2.333 2.33 2.33 0 00-.685-1.655l-.157-.156A7.06 7.06 0 0036 7.864 7.122 7.122 0 0028.886.75 7.06 7.06 0 0024 2.703 7.061 7.061 0 0019.114.75 7.122 7.122 0 0012 7.864c0 1.843.701 3.574 1.969 4.903a2.32 2.32 0 00-.469 1.392 2.339 2.339 0 002.258 2.333 2.335 2.335 0 002.25 2.25 2.335 2.335 0 002.25 2.25 2.34 2.34 0 002.333 2.258c.228 0 .447-.043.659-.105V25.5H10.5a3.754 3.754 0 00-3.75 3.75v.817A4.504 4.504 0 003 34.5c0 1.459.701 2.754 1.78 3.577A6.756 6.756 0 00.75 44.25v3h13.5v-3a6.756 6.756 0 00-4.03-6.173A4.492 4.492 0 0012 34.5a4.504 4.504 0 00-3.75-4.433v-.817c0-1.24 1.01-2.25 2.25-2.25h12.75v3.067A4.503 4.503 0 0019.5 34.5c0 1.459.701 2.754 1.78 3.577a6.756 6.756 0 00-4.03 6.173v3h13.5v-3a6.756 6.756 0 00-4.03-6.173A4.492 4.492 0 0028.5 34.5a4.504 4.504 0 00-3.75-4.433V27H37.5c1.24 0 2.25 1.01 2.25 2.25v.817A4.503 4.503 0 0036 34.5c0 1.459.701 2.754 1.78 3.577a6.756 6.756 0 00-4.03 6.173v3h13.5v-3a6.756 6.756 0 00-4.03-6.173zM28.885 2.25A5.62 5.62 0 0134.5 7.864a5.566 5.566 0 01-1.163 3.412L29.89 7.828c.224-.168.44-.347.642-.548l-1.06-1.06a4.345 4.345 0 01-3.093 1.28H25.19l-1.28 1.28a.747.747 0 01-.53.22h-2.82a.311.311 0 01-.22-.53l4.576-4.576a5.579 5.579 0 013.97-1.644zm-9.772 0a5.57 5.57 0 013.818 1.507L19.28 7.409a1.813 1.813 0 001.281 3.09h2.817a2.234 2.234 0 001.592-.658L25.81 9h.568c.75 0 1.476-.143 2.152-.41l4.974 4.975a.842.842 0 01-1.19 1.19L30.53 12.97l-1.06 1.06 1.784 1.785a.842.842 0 01-1.19 1.19L28.28 15.22l-1.06 1.06 1.784 1.784a.842.842 0 01-1.19 1.19L26.03 17.47l-1.06 1.06 1.784 1.784a.842.842 0 01-1.19 1.19l-.25-.25a2.335 2.335 0 00-2.072-3.246 2.335 2.335 0 00-2.25-2.25 2.335 2.335 0 00-2.25-2.25 2.34 2.34 0 00-2.333-2.258c-.504 0-.98.165-1.378.458A5.57 5.57 0 0113.5 7.864a5.62 5.62 0 015.614-5.614zM15 14.16c0-.226.088-.437.246-.595l.569-.569a.842.842 0 011.19 1.19l-.57.568A.842.842 0 0115 14.159zm2.25 2.25c0-.226.088-.437.246-.595l.569-.569a.842.842 0 011.19 1.19l-.57.568a.842.842 0 01-1.436-.595zm2.25 2.25c0-.226.088-.436.246-.596l.569-.568a.842.842 0 011.19 1.19l-.57.568a.842.842 0 01-1.436-.595zm3.09 3.09a.842.842 0 01-.594-1.436l.569-.568a.842.842 0 011.19 1.19l-.57.568a.837.837 0 01-.594.246zm-9.84 22.5v1.5h-1.5v-3h-1.5v3h-4.5v-3h-1.5v3h-1.5v-1.5A5.256 5.256 0 017.5 39a5.256 5.256 0 015.25 5.25zM10.5 34.5c0 1.654-1.345 3-3 3-1.654 0-3-1.346-3-3s1.346-3 3-3c1.655 0 3 1.346 3 3zm18.75 9.75v1.5h-1.5v-3h-1.5v3h-4.5v-3h-1.5v3h-1.5v-1.5A5.256 5.256 0 0124 39a5.256 5.256 0 015.25 5.25zM27 34.5c0 1.654-1.346 3-3 3s-3-1.346-3-3 1.346-3 3-3 3 1.346 3 3zm10.5 0c0-1.654 1.346-3 3-3s3 1.346 3 3-1.346 3-3 3-3-1.346-3-3zm8.25 11.25h-1.5v-3h-1.5v3h-4.5v-3h-1.5v3h-1.5v-1.5A5.256 5.256 0 0140.5 39a5.256 5.256 0 015.25 5.25v1.5z"/><path d="M28.5 28.5H30V30h-1.5v-1.5zm3 0H33V30h-1.5v-1.5zm3 0H36V30h-1.5v-1.5zm-22.5 0h1.5V30H12v-1.5zm3 0h1.5V30H15v-1.5zm3 0h1.5V30H18v-1.5z"/></g><defs><clipPath id="clip0_1094_4489"><path fill="#fff" d="M0 0h48v48H0z"/></clipPath></defs></svg>
